; generated by PrusaSlicer 2.5.0+MacOS-arm64 on 2023-03-20 at 22:36:27 UTC


;
;
; 

; external perimeters extrusion width = 0.45mm
; perimeters extrusion width = 0.45mm
; infill extrusion width = 0.45mm
; solid infill extrusion width = 0.45mm
; top infill extrusion width = 0.40mm
; first layer extrusion width = 0.42mm

M73 P0 R256
M73 Q0 S258
M201 X1000 Y1000 Z200 E5000 ; sets maximum accelerations, mm/sec^2
M203 X200 Y200 Z12 E120 ; sets maximum feedrates, mm / sec
M204 P1250 R1250 T1250 ; sets acceleration (P, T) and retract acceleration (R), mm/sec^2
M205 X8.00 Y8.00 Z0.40 E4.50 ; sets the jerk limits, mm/sec
M205 S0 T0 ; sets the minimum extruding and travel feed rate, mm/sec
M107
;TYPE:Custom
M862.3 P "MK3" ; printer model check
M862.1 P0.4 ; nozzle diameter check
M115 U3.12.2 ; tell printer latest fw version
G90 ; use absolute coordinates
M83 ; extruder relative mode
M104 S215 ; set extruder temp
M140 S60 ; set bed temp
M190 S60 ; wait for bed temp
M109 S215 ; wait for extruder temp
G28 W ; home all without mesh bed level
G80 ; mesh bed leveling

G1 Z0.2 F720
G1 Y-3 F1000 ; go outside print area
G92 E0
G1 X60 E9 F1000 ; intro line
G1 X100 E12.5 F1000 ; intro line

G92 E0
M221 S95

; Don't change E values below. Excessive value can damage the printer.

M907 E538 ; set extruder motor current
G21 ; set units to millimeters
G90 ; use absolute coordinates
M83 ; use relative distances for extrusion
M900 K0.05 ; Filament gcode LA 1.5
M900 K30 ; Filament gcode LA 1.0
M107
;LAYER_CHANGE
;Z:0.2
;HEIGHT:0.2
;BEFORE_LAYER_CHANGE
G92 E0.0
;0.2


G1 E-.8 F2100
G1 Z.4 F720
;AFTER_LAYER_CHANGE
;0.2
G1 X23.06 Y43.599 F10800
G1 Z.2 F720
G1 E.8 F2100
M204 S800
;TYPE:Skirt/Brim
;WIDTH:0.42
G1 F1200
G1 X24 Y43.405 E.03008
G1 X226 Y43.405 E6.33357
G1 X227.307 Y43.797 E.04278
G1 X228.183 Y44.843 E.04278
G1 X228.377 Y45.782 E.03008
G1 X228.377 Y164.249 E3.71446
G1 X227.985 Y165.557 E.04278
G1 X226.94 Y166.433 E.04278
G1 X226 Y166.627 E.03008
G1 X24 Y166.627 E6.33357
G1 X22.693 Y166.235 E.04278
M73 Q0 S257
G1 X21.817 Y165.189 E.04278
M73 P0 R255
G1 X21.623 Y164.249 E.03008
G1 X21.623 Y45.782 E3.71446
G1 X22.015 Y44.475 E.04278
G1 X23.014 Y43.637 E.0409
M204 S1000
; printing object LEDFrame-1-06.stl id:0 copy 0
;WIPE_START
G1 F8640
G1 X24 Y43.405 E-.23384
G1 X26.279 Y43.405 E-.52616
;WIPE_END
G1 E-.04 F2100
G1 Z.6 F720
G1 X24.787 Y46.569 F10800
G1 Z.2 F720
G1 E.8 F2100
M204 S800
;TYPE:Perimeter
;WIDTH:0.419999
G1 F1200
G1 X225.213 Y46.569 E6.2842
G1 X225.213 Y163.462 E3.66509
G1 X24.787 Y163.462 E6.2842
G1 X24.787 Y46.629 E3.66321
M204 S1000
G1 X24.41 Y46.192 F10800
M204 S800
;TYPE:External perimeter
G1 F1200
G1 X225.59 Y46.192 E6.30785
G1 X225.59 Y163.84 E3.68874
G1 X24.41 Y163.84 E6.30785
G1 X24.41 Y46.252 E3.68686
M204 S1000
M73 P0 R254
M73 Q0 S256
G1 X24.804 Y46.262 F10800
;WIPE_START
G1 F8640
G1 X27.701 Y46.251 E-.76
;WIPE_END
G1 E-.04 F2100
G1 Z.6 F720
G1 X221.494 Y62.341 F10800
G1 Z.2 F720
G1 E.8 F2100
M204 S800
;TYPE:Perimeter
G1 F1200
G1 X221.678 Y62.387 E.00593
G1 X221.821 Y62.496 E.00565
G1 X221.934 Y62.668 E.00646
G1 X221.977 Y62.886 E.00696
G1 X221.977 Y159.086 E3.01628
G1 X221.946 Y159.271 E.00588
G1 X221.862 Y159.428 E.00557
G1 X221.593 Y159.622 E.01041
G1 X221.411 Y159.652 E.00576
G1 X28.589 Y159.652 E6.04582
G1 X28.407 Y159.622 E.00576
G1 X28.138 Y159.428 E.01041
G1 X28.031 Y159.184 E.00835
G1 X28.023 Y159.086 E.00308
G1 X28.023 Y62.886 E3.01628
G1 X28.066 Y62.668 E.00696
G1 X28.179 Y62.496 E.00646
G1 X28.464 Y62.334 E.01029
G1 X28.589 Y62.32 E.00392
G1 X221.436 Y62.327 E6.04658
M204 S1000
G1 X221.411 Y62.698 F10800
M204 S800
;TYPE:External perimeter
G1 F1200
G1 X221.548 Y62.756 E.00466
G1 X221.6 Y62.886 E.00439
G1 X221.6 Y159.086 E3.01628
G1 X221.562 Y159.2 E.00377
G1 X221.411 Y159.274 E.00526
G1 X28.589 Y159.274 E6.04582
G1 X28.438 Y159.2 E.00526
M73 Q0 S255
G1 X28.4 Y159.086 E.00377
G1 X28.4 Y62.886 E3.01628
G1 X28.452 Y62.756 E.00439
M73 P1 R253
G1 X28.589 Y62.698 E.00466
G1 X221.351 Y62.698 E6.04394
M204 S1000
G1 X221.517 Y62.593 F10800
;WIPE_START
M73 Q1 S255
G1 F8640
G1 X221.548 Y62.756 E-.04735
G1 X221.6 Y62.886 E-.03234
G1 X221.6 Y65.832 E-.68032
;WIPE_END
G1 E-.04 F2100
G1 Z.6 F720
G1 X224.337 Y46.682 F10800
G1 Z.2 F720
G1 E.8 F2100
M204 S800
;TYPE:Solid infill
;WIDTH:0.420212
G1 F1200
G1 X224.93 Y47.275 E.02631
G1 X224.93 Y47.809 E.01674
G1 X223.973 Y46.852 E.04246
G1 X223.44 Y46.852 E.01674
G1 X224.93 Y48.343 E.06613
G1 X224.93 Y48.876 E.01674
G1 X222.906 Y46.852 E.0898
G1 X222.372 Y46.852 E.01674
G1 X224.93 Y49.41 E.11347
G1 X224.93 Y49.943 E.01674
G1 X221.839 Y46.852 E.13715
G1 X221.305 Y46.852 E.01674
G1 X224.93 Y50.477 E.16082
G1 X224.93 Y51.01 E.01674
G1 X220.772 Y46.852 E.18449
G1 X220.238 Y46.852 E.01674
G1 X224.93 Y51.544 E.20816
G1 X224.93 Y52.078 E.01674
G1 X219.705 Y46.852 E.23184
G1 X219.171 Y46.852 E.01674
G1 X224.93 Y52.611 E.25551
G1 X224.93 Y53.145 E.01674
G1 X218.637 Y46.852 E.27918
G1 X218.104 Y46.852 E.01674
G1 X224.93 Y53.678 E.30286
G1 X224.93 Y54.212 E.01674
G1 X217.57 Y46.852 E.32653
G1 X217.037 Y46.852 E.01674
G1 X224.93 Y54.746 E.3502
G1 X224.93 Y55.279 E.01674
G1 X216.503 Y46.852 E.37387
G1 X215.97 Y46.852 E.01674
G1 X224.93 Y55.813 E.39755
G1 X224.93 Y56.346 E.01674
G1 X215.436 Y46.852 E.42122
G1 X214.902 Y46.852 E.01674
G1 X224.93 Y56.88 E.44489
G1 X224.93 Y57.413 E.01674
G1 X214.369 Y46.852 E.46857
G1 X213.835 Y46.852 E.01674
G1 X224.93 Y57.947 E.49224
G1 X224.93 Y58.481 E.01674
G1 X213.302 Y46.852 E.51591
G1 X212.768 Y46.852 E.01674
G1 X224.93 Y59.014 E.53958
G1 X224.93 Y59.548 E.01674
G1 X212.235 Y46.852 E.56326
G1 X211.701 Y46.852 E.01674
G1 X224.93 Y60.081 E.58693
G1 X224.93 Y60.615 E.01674
G1 X211.167 Y46.852 E.6106
G1 X210.634 Y46.852 E.01674
G1 X224.93 Y61.148 E.63427
G1 X224.93 Y61.682 E.01674
G1 X210.1 Y46.852 E.65795
G1 X209.567 Y46.852 E.01674
G1 X224.93 Y62.216 E.68162
G1 X224.93 Y62.749 E.01674
G1 X209.033 Y46.852 E.70529
G1 X208.5 Y46.852 E.01674
G1 X224.93 Y63.283 E.72897
G1 X224.93 Y63.816 E.01674
G1 X207.966 Y46.852 E.75264
G1 X207.432 Y46.852 E.01674
G1 X224.93 Y64.35 E.77631
G1 X224.93 Y64.883 E.01674
G1 X206.899 Y46.852 E.79998
G1 X206.365 Y46.852 E.01674
G1 X224.93 Y65.417 E.82366
G1 X224.93 Y65.951 E.01674
G1 X222.26 Y63.28 E.11847
G1 X222.26 Y63.814 E.01674
G1 X224.93 Y66.484 E.11847
G1 X224.93 Y67.018 E.01674
G1 X222.26 Y64.347 E.11847
G1 X222.26 Y64.881 E.01674
G1 X224.93 Y67.551 E.11847
G1 X224.93 Y68.085 E.01674
G1 X222.26 Y65.415 E.11847
G1 X222.26 Y65.948 E.01674
G1 X224.93 Y68.618 E.11847
G1 X224.93 Y69.152 E.01674
G1 X222.26 Y66.482 E.11847
G1 X222.26 Y67.015 E.01674
G1 X224.93 Y69.686 E.11847
G1 X224.93 Y70.219 E.01674
G1 X222.26 Y67.549 E.11847
G1 X222.26 Y68.082 E.01674
G1 X224.93 Y70.753 E.11847
G1 X224.93 Y71.286 E.01674
G1 X222.26 Y68.616 E.11847
G1 X222.26 Y69.15 E.01674
G1 X224.93 Y71.82 E.11847
G1 X224.93 Y72.353 E.01674
G1 X222.26 Y69.683 E.11847
G1 X222.26 Y70.217 E.01674
G1 X224.93 Y72.887 E.11847
G1 X224.93 Y73.421 E.01674
G1 X222.26 Y70.75 E.11847
G1 X222.26 Y71.284 E.01674
G1 X224.93 Y73.954 E.11847
G1 X224.93 Y74.488 E.01674
G1 X222.26 Y71.817 E.11847
G1 X222.26 Y72.351 E.01674
G1 X224.93 Y75.021 E.11847
G1 X224.93 Y75.555 E.01674
G1 X222.26 Y72.885 E.11847
G1 X222.26 Y73.418 E.01674
G1 X224.93 Y76.088 E.11847
G1 X224.93 Y76.622 E.01674
G1 X222.26 Y73.952 E.11847
G1 X222.26 Y74.485 E.01674
G1 X224.93 Y77.156 E.11847
G1 X224.93 Y77.689 E.01674
G1 X222.26 Y75.019 E.11847
G1 X222.26 Y75.552 E.01674
G1 X224.93 Y78.223 E.11847
G1 X224.93 Y78.756 E.01674
G1 X222.26 Y76.086 E.11847
G1 X222.26 Y76.62 E.01674
G1 X224.93 Y79.29 E.11847
G1 X224.93 Y79.823 E.01674
G1 X222.26 Y77.153 E.11847
G1 X222.26 Y77.687 E.01674
G1 X224.93 Y80.357 E.11847
G1 X224.93 Y80.891 E.01674
G1 X222.26 Y78.22 E.11847
G1 X222.26 Y78.754 E.01674
G1 X224.93 Y81.424 E.11847
G1 X224.93 Y81.958 E.01674
G1 X222.26 Y79.287 E.11847
G1 X222.26 Y79.821 E.01674
G1 X224.93 Y82.491 E.11847
G1 X224.93 Y83.025 E.01674
G1 X222.26 Y80.355 E.11847
G1 X222.26 Y80.888 E.01674
G1 X224.93 Y83.558 E.11847
G1 X224.93 Y84.092 E.01674
G1 X222.26 Y81.422 E.11847
G1 X222.26 Y81.955 E.01674
G1 X224.93 Y84.626 E.11847
G1 X224.93 Y85.159 E.01674
G1 X222.26 Y82.489 E.11847
G1 X222.26 Y83.022 E.01674
G1 X224.93 Y85.693 E.11847
G1 X224.93 Y86.226 E.01674
G1 X222.26 Y83.556 E.11847
G1 X222.26 Y84.09 E.01674
G1 X224.93 Y86.76 E.11847
G1 X224.93 Y87.293 E.01674
G1 X222.26 Y84.623 E.11847
G1 X222.26 Y85.157 E.01674
G1 X224.93 Y87.827 E.11847
G1 X224.93 Y88.361 E.01674
G1 X222.26 Y85.69 E.11847
G1 X222.26 Y86.224 E.01674
G1 X224.93 Y88.894 E.11847
G1 X224.93 Y89.428 E.01674
G1 X222.26 Y86.757 E.11847
G1 X222.26 Y87.291 E.01674
G1 X224.93 Y89.961 E.11847
G1 X224.93 Y90.495 E.01674
G1 X222.26 Y87.825 E.11847
G1 X222.26 Y88.358 E.01674
G1 X224.93 Y91.028 E.11847
G1 X224.93 Y91.562 E.01674
G1 X222.26 Y88.892 E.11847
G1 X222.26 Y89.425 E.01674
G1 X224.93 Y92.096 E.11847
G1 X224.93 Y92.629 E.01674
G1 X222.26 Y89.959 E.11847
G1 X222.26 Y90.492 E.01674
G1 X224.93 Y93.163 E.11847
G1 X224.93 Y93.696 E.01674
G1 X222.26 Y91.026 E.11847
G1 X222.26 Y91.56 E.01674
G1 X224.93 Y94.23 E.11847
G1 X224.93 Y94.763 E.01674
G1 X222.26 Y92.093 E.11847
G1 X222.26 Y92.627 E.01674
G1 X224.93 Y95.297 E.11847
G1 X224.93 Y95.831 E.01674
G1 X222.26 Y93.16 E.11847
G1 X222.26 Y93.694 E.01674
G1 X224.93 Y96.364 E.11847
G1 X224.93 Y96.898 E.01674
G1 X222.26 Y94.227 E.11847
G1 X222.26 Y94.761 E.01674
G1 X224.93 Y97.431 E.11847
G1 X224.93 Y97.965 E.01674
G1 X222.26 Y95.295 E.11847
G1 X222.26 Y95.828 E.01674
G1 X224.93 Y98.498 E.11847
G1 X224.93 Y99.032 E.01674
G1 X222.26 Y96.362 E.11847
G1 X222.26 Y96.895 E.01674
G1 X224.93 Y99.566 E.11847
G1 X224.93 Y100.099 E.01674
G1 X222.26 Y97.429 E.11847
G1 X222.26 Y97.962 E.01674
G1 X224.93 Y100.633 E.11847
G1 X224.93 Y101.166 E.01674
G1 X222.26 Y98.496 E.11847
G1 X222.26 Y99.03 E.01674
G1 X224.93 Y101.7 E.11847
G1 X224.93 Y102.233 E.01674
G1 X222.26 Y99.563 E.11847
G1 X222.26 Y100.097 E.01674
G1 X224.93 Y102.767 E.11847
G1 X224.93 Y103.301 E.01674
G1 X222.26 Y100.63 E.11847
G1 X222.26 Y101.164 E.01674
G1 X224.93 Y103.834 E.11847
G1 X224.93 Y104.368 E.01674
G1 X222.26 Y101.697 E.11847
G1 X222.26 Y102.231 E.01674
G1 X224.93 Y104.901 E.11847
G1 X224.93 Y105.435 E.01674
G1 X222.26 Y102.765 E.11847
G1 X222.26 Y103.298 E.01674
G1 X224.93 Y105.968 E.11847
G1 X224.93 Y106.502 E.01674
G1 X222.26 Y103.832 E.11847
G1 X222.26 Y104.365 E.01674
G1 X224.93 Y107.036 E.11847
G1 X224.93 Y107.569 E.01674
G1 X222.26 Y104.899 E.11847
G1 X222.26 Y105.432 E.01674
G1 X224.93 Y108.103 E.11847
G1 X224.93 Y108.636 E.01674
G1 X222.26 Y105.966 E.11847
G1 X222.26 Y106.5 E.01674
M73 Q1 S254
G1 X224.93 Y109.17 E.11847
G1 X224.93 Y109.703 E.01674
G1 X222.26 Y107.033 E.11847
G1 X222.26 Y107.567 E.01674
G1 X224.93 Y110.237 E.11847
G1 X224.93 Y110.771 E.01674
G1 X222.26 Y108.1 E.11847
G1 X222.26 Y108.634 E.01674
G1 X224.93 Y111.304 E.11847
G1 X224.93 Y111.838 E.01674
G1 X222.26 Y109.167 E.11847
G1 X222.26 Y109.701 E.01674
G1 X224.93 Y112.371 E.11847
G1 X224.93 Y112.905 E.01674
G1 X222.26 Y110.235 E.11847
G1 X222.26 Y110.768 E.01674
G1 X224.93 Y113.438 E.11847
G1 X224.93 Y113.972 E.01674
G1 X222.26 Y111.302 E.11847
G1 X222.26 Y111.835 E.01674
G1 X224.93 Y114.506 E.11847
G1 X224.93 Y115.039 E.01674
G1 X222.26 Y112.369 E.11847
G1 X222.26 Y112.902 E.01674
G1 X224.93 Y115.573 E.11847
G1 X224.93 Y116.106 E.01674
G1 X222.26 Y113.436 E.11847
G1 X222.26 Y113.97 E.01674
G1 X224.93 Y116.64 E.11847
G1 X224.93 Y117.173 E.01674
G1 X222.26 Y114.503 E.11847
G1 X222.26 Y115.037 E.01674
G1 X224.93 Y117.707 E.11847
G1 X224.93 Y118.241 E.01674
G1 X222.26 Y115.57 E.11847
G1 X222.26 Y116.104 E.01674
G1 X224.93 Y118.774 E.11847
G1 X224.93 Y119.308 E.01674
G1 X222.26 Y116.637 E.11847
G1 X222.26 Y117.171 E.01674
G1 X224.93 Y119.841 E.11847
G1 X224.93 Y120.375 E.01674
G1 X222.26 Y117.705 E.11847
G1 X222.26 Y118.238 E.01674
G1 X224.93 Y120.908 E.11847
G1 X224.93 Y121.442 E.01674
G1 X222.26 Y118.772 E.11847
G1 X222.26 Y119.305 E.01674
G1 X224.93 Y121.976 E.11847
G1 X224.93 Y122.509 E.01674
G1 X222.26 Y119.839 E.11847
G1 X222.26 Y120.372 E.01674
G1 X224.93 Y123.043 E.11847
G1 X224.93 Y123.576 E.01674
M73 P1 R252
G1 X222.26 Y120.906 E.11847
G1 X222.26 Y121.44 E.01674
G1 X224.93 Y124.11 E.11847
G1 X224.93 Y124.643 E.01674
G1 X222.26 Y121.973 E.11847
G1 X222.26 Y122.507 E.01674
G1 X224.93 Y125.177 E.11847
G1 X224.93 Y125.711 E.01674
G1 X222.26 Y123.04 E.11847
G1 X222.26 Y123.574 E.01674
G1 X224.93 Y126.244 E.11847
G1 X224.93 Y126.778 E.01674
G1 X222.26 Y124.107 E.11847
G1 X222.26 Y124.641 E.01674
G1 X224.93 Y127.311 E.11847
G1 X224.93 Y127.845 E.01674
G1 X222.26 Y125.175 E.11847
G1 X222.26 Y125.708 E.01674
G1 X224.93 Y128.378 E.11847
G1 X224.93 Y128.912 E.01674
G1 X222.26 Y126.242 E.11847
G1 X222.26 Y126.775 E.01674
G1 X224.93 Y129.446 E.11847
G1 X224.93 Y129.979 E.01674
G1 X222.26 Y127.309 E.11847
G1 X222.26 Y127.842 E.01674
G1 X224.93 Y130.513 E.11847
G1 X224.93 Y131.046 E.01674
G1 X222.26 Y128.376 E.11847
G1 X222.26 Y128.91 E.01674
G1 X224.93 Y131.58 E.11847
G1 X224.93 Y132.113 E.01674
G1 X222.26 Y129.443 E.11847
G1 X222.26 Y129.977 E.01674
G1 X224.93 Y132.647 E.11847
G1 X224.93 Y133.181 E.01674
G1 X222.26 Y130.51 E.11847
G1 X222.26 Y131.044 E.01674
G1 X224.93 Y133.714 E.11847
G1 X224.93 Y134.248 E.01674
G1 X222.26 Y131.577 E.11847
G1 X222.26 Y132.111 E.01674
G1 X224.93 Y134.781 E.11847
G1 X224.93 Y135.315 E.01674
G1 X222.26 Y132.645 E.11847
G1 X222.26 Y133.178 E.01674
G1 X224.93 Y135.848 E.11847
G1 X224.93 Y136.382 E.01674
G1 X222.26 Y133.712 E.11847
G1 X222.26 Y134.245 E.01674
G1 X224.93 Y136.916 E.11847
G1 X224.93 Y137.449 E.01674
G1 X222.26 Y134.779 E.11847
G1 X222.26 Y135.312 E.01674
G1 X224.93 Y137.983 E.11847
G1 X224.93 Y138.516 E.01674
G1 X222.26 Y135.846 E.11847
G1 X222.26 Y136.38 E.01674
G1 X224.93 Y139.05 E.11847
G1 X224.93 Y139.583 E.01674
G1 X222.26 Y136.913 E.11847
G1 X222.26 Y137.447 E.01674
G1 X224.93 Y140.117 E.11847
G1 X224.93 Y140.651 E.01674
G1 X222.26 Y137.98 E.11847
G1 X222.26 Y138.514 E.01674
G1 X224.93 Y141.184 E.11847
G1 X224.93 Y141.718 E.01674
G1 X222.26 Y139.047 E.11847
G1 X222.26 Y139.581 E.01674
G1 X224.93 Y142.251 E.11847
G1 X224.93 Y142.785 E.01674
G1 X222.26 Y140.115 E.11847
G1 X222.26 Y140.648 E.01674
G1 X224.93 Y143.318 E.11847
G1 X224.93 Y143.852 E.01674
G1 X222.26 Y141.182 E.11847
G1 X222.26 Y141.715 E.01674
G1 X224.93 Y144.386 E.11847
G1 X224.93 Y144.919 E.01674
G1 X222.26 Y142.249 E.11847
G1 X222.26 Y142.782 E.01674
G1 X224.93 Y145.453 E.11847
G1 X224.93 Y145.986 E.01674
G1 X222.26 Y143.316 E.11847
G1 X222.26 Y143.85 E.01674
G1 X224.93 Y146.52 E.11847
G1 X224.93 Y147.053 E.01674
G1 X222.26 Y144.383 E.11847
G1 X222.26 Y144.917 E.01674
G1 X224.93 Y147.587 E.11847
G1 X224.93 Y148.121 E.01674
G1 X222.26 Y145.45 E.11847
G1 X222.26 Y145.984 E.01674
G1 X224.93 Y148.654 E.11847
G1 X224.93 Y149.188 E.01674
G1 X222.26 Y146.517 E.11847
G1 X222.26 Y147.051 E.01674
G1 X224.93 Y149.721 E.11847
G1 X224.93 Y150.255 E.01674
G1 X222.26 Y147.585 E.11847
G1 X222.26 Y148.118 E.01674
G1 X224.93 Y150.788 E.11847
G1 X224.93 Y151.322 E.01674
G1 X222.26 Y148.652 E.11847
G1 X222.26 Y149.185 E.01674
G1 X224.93 Y151.856 E.11847
G1 X224.93 Y152.389 E.01674
G1 X222.26 Y149.719 E.11847
G1 X222.26 Y150.252 E.01674
G1 X224.93 Y152.923 E.11847
G1 X224.93 Y153.456 E.01674
G1 X222.26 Y150.786 E.11847
G1 X222.26 Y151.32 E.01674
G1 X224.93 Y153.99 E.11847
G1 X224.93 Y154.523 E.01674
G1 X222.26 Y151.853 E.11847
G1 X222.26 Y152.387 E.01674
G1 X224.93 Y155.057 E.11847
G1 X224.93 Y155.591 E.01674
G1 X222.26 Y152.92 E.11847
G1 X222.26 Y153.454 E.01674
G1 X224.93 Y156.124 E.11847
G1 X224.93 Y156.658 E.01674
G1 X222.26 Y153.987 E.11847
G1 X222.26 Y154.521 E.01674
G1 X224.93 Y157.191 E.11847
G1 X224.93 Y157.725 E.01674
G1 X222.26 Y155.055 E.11847
G1 X222.26 Y155.588 E.01674
G1 X224.93 Y158.258 E.11847
G1 X224.93 Y158.792 E.01674
G1 X222.26 Y156.122 E.11847
G1 X222.26 Y156.655 E.01674
G1 X224.93 Y159.326 E.11847
G1 X224.93 Y159.859 E.01674
G1 X222.26 Y157.189 E.11847
G1 X222.26 Y157.722 E.01674
G1 X224.93 Y160.393 E.11847
